X:4
T:The Banshee
T:McMahon's
R:Reel
C:James McMahon
S:Various
Z:Transcription, arrangement, chords:Mike Long
M:C|
L:1/8
K:G
"G"G2 GD EDEG|"C"AGAB "D"d2 Bd|"C"eged "G"BAGA|"C"BAGE "D"EDDE|\
"G"G2 GD EDEG|"C"AGAB "D"d2 Bd|
"C"eged "G"BAGA|"C"BAGE "D"ED D2:|\
|:"Am"eaag eggf|"Em"eBBA B2Bd|"Em"eB~B2 "G"gBfB|
"Em"eBBA B2 Bd|\
"Am"eaag eggf|"Em"eBBA B2 Bd|"C"eged "G"BAGA|"C"BAGE "D"ED D2:|
